Newaita-dark/apps/24/ruby.svg

<svg height="24pt" viewBox="0 0 24 24" width="24pt" xmlns="http://www.w3.org/2000/svg" xmlns:xlink="http://www.w3.org/1999/xlink"><linearGradient id="a"><stop offset="0" stop-opacity=".313725"/><stop offset=".222222" stop-opacity=".27451"/><stop offset="1" stop-opacity="0"/></linearGradient><radialGradient id="b" cx="450.90894" cy="189.57936" gradientTransform="matrix(.0000001 -.0585994 -.0791092 -.00000008 26.718765 47.724063)" gradientUnits="userSpaceOnUse" r="21.166656" xlink:href="#a"/><radialGradient id="c" cx="450.90894" cy="189.57936" gradientTransform="matrix(-.0000001 .0585994 .0791092 .00000008 -2.903993 -5.618047)" gradientUnits="userSpaceOnUse" r="21.166656" xlink:href="#a"/><radialGradient id="d" cx="450.90894" cy="189.57936" gradientTransform="matrix(-.0000001 -.0585994 .0791092 -.00000008 -2.903993 47.724063)" gradientUnits="userSpaceOnUse" r="21.166656" xlink:href="#a"/><radialGradient id="e" cx="450.90894" cy="189.57936" gradientTransform="matrix(.0000001 .0585994 -.0791092 .00000008 26.718764 -5.618048)" gradientUnits="userSpaceOnUse" r="21.166656" xlink:href="#a"/><linearGradient id="f"><stop offset="0" stop-color="#e57373"/><stop offset="1" stop-color="#ef9a9a"/></linearGradient><linearGradient id="g" gradientUnits="userSpaceOnUse" x1="5.95368" x2="5.95368" xlink:href="#f" y1="21.0253985937" y2="2.17207772546"/><linearGradient id="h"><stop offset="0" stop-color="#ef5350"/><stop offset="1" stop-color="#e57373"/></linearGradient><linearGradient id="i" gradientUnits="userSpaceOnUse" x1="9.9228" x2="9.9228" xlink:href="#h" y1="21.0253985937" y2="2.17207772546"/><linearGradient id="j"><stop offset="0" stop-color="#f44336"/><stop offset="1" stop-color="#ef5350"/></linearGradient><linearGradient id="k" gradientUnits="userSpaceOnUse" x1="11.90736" x2="11.90736" xlink:href="#j" y1="21.0253985937" y2="2.17207760142"/><linearGradient id="l" gradientUnits="userSpaceOnUse" x1="15.87648" x2="15.87648" xlink:href="#h" y1="21.0253985937" y2="2.17207772546"/><linearGradient id="m" gradientUnits="userSpaceOnUse" x1="18.85332" x2="18.85332" xlink:href="#f" y1="21.0253985937" y2="2.17207772546"/><linearGradient id="n" gradientUnits="userSpaceOnUse" x1="4.9614" x2="4.9614" xlink:href="#j" y1="21.0253985937" y2="2.17207772546"/><linearGradient id="o" gradientUnits="userSpaceOnUse" x1="11.90736" x2="11.90736" xlink:href="#h" y1="21.0253985937" y2="2.17207760142"/><linearGradient id="p" gradientUnits="userSpaceOnUse" x1="16.86876" x2="16.86876" xlink:href="#j" y1="21.0253985937" y2="2.17207772546"/><path d="m11.90625 21.054688h1.488281v-.992188h-1.488281zm0 0" fill="url(#b)"/><path d="m11.90625 21.054688h-1.488281v.992187h1.488281zm0 0" fill="url(#c)"/><path d="m11.90625 21.054688h-1.488281v-.992188h1.488281zm0 0" fill="url(#d)"/><path d="m11.90625 21.054688h1.488281v.992187h-1.488281zm0 0" fill="url(#e)"/><path d="m5.421875 2.417969c-.113281.097656-.203125.214843-.265625.355469l-2.976562 6.949218c-.050782.125-.078126.257813-.078126.386719h6.171876zm0 0" fill="url(#g)"/><path d="m11.898438 2.175781h-5.832032c-.242187 0-.46875.089844-.644531.242188l2.847656 7.683593zm0 0" fill="url(#i)"/><path d="m11.898438 2.175781-3.628907 7.925781.003907.007813h7.273437l-3.628906-7.933594zm0 0" fill="url(#k)"/><path d="m18.613281 2.414062c-.175781-.148437-.398437-.238281-.640625-.238281h-6.054687l3.628906 7.933594h.03125zm0 0" fill="url(#l)"/><path d="m18.613281 2.414062-3.035156 7.695313h6.359375c0-.128906-.027344-.261719-.078125-.386719l-2.976563-6.949218c-.0625-.140626-.15625-.261719-.269531-.359376zm0 0" fill="url(#m)"/><path d="m8.269531 10.109375h-6.28125c0 .242187.089844.476563.253907.660156l8.929687 9.925781c.195313.214844.464844.324219.734375.324219zm0 0" fill="url(#n)"/><path d="m8.269531 10.109375 3.636719 10.910156h.003906l3.636719-10.910156zm0 0" fill="url(#o)"/><path d="m15.546875 10.109375-3.636719 10.910156c.265625 0 .535156-.109375.730469-.324219l8.929687-9.925781c.167969-.183593.253907-.417969.253907-.660156zm0 0" fill="url(#p)"/><path d="m6.066406 2.175781c-.242187 0-.46875.089844-.644531.242188-.113281.097656-.203125.214843-.265625.355469l-2.976562 6.949218c-.050782.125-.078126.257813-.078126.386719h-.113281c0 .082031.011719.167969.03125.246094h.082031c0-.128907.027344-.261719.078126-.386719l2.976562-6.949219c.0625-.140625.152344-.261719.265625-.355469.175781-.152343.402344-.242187.644531-.242187h11.90625c.242188 0 .464844.089844.640625.238281.113281.097656.207031.21875.269531.359375l2.976563 6.949219c.019531.046875.035156.09375.046875.140625h.03125c0-.128906-.027344-.261719-.078125-.386719l-2.976563-6.949218c-.0625-.140626-.15625-.261719-.269531-.359376-.175781-.148437-.398437-.238281-.640625-.238281zm0 0" fill="#fff" fill-opacity=".392157"/><path d="m1.988281 10.109375c0 .242187.089844.476563.253907.660156l8.929687 9.925781c.195313.214844.464844.324219.734375.324219h.003906c.265625 0 .535156-.109375.730469-.324219l8.929687-9.925781c.167969-.183593.253907-.417969.253907-.660156h-.050781c-.042969.125-.109376.246094-.203126.347656l-8.929687 9.921875c-.195313.21875-.464844.328125-.730469.328125-.003906 0-.003906 0-.003906 0-.269531 0-.539062-.109375-.734375-.328125l-8.929687-9.921875c-.089844-.101562-.160157-.222656-.203126-.347656zm0 0" fill-opacity=".235294"/><path d="m6.066406 2.105469c-.257812 0-.503906.097656-.691406.257812-.121094.105469-.21875.234375-.28125.382813l-2.976562 6.949218c-.046876.109376-.074219.226563-.082032.34375h-.046875c-.039062 0-.070312.03125-.070312.070313 0 .257813.09375.511719.273437.707031l8.929688 9.925782c.210937.230468.496094.347656.785156.347656h.003906c.285156 0 .574219-.117188.785156-.347656l8.929688-9.925782c.160156-.179687.253906-.402344.269531-.636718h.042969c.039062 0 .070312-.03125.070312-.070313 0-.140625-.027343-.28125-.085937-.414063l-2.976563-6.949218c-.066406-.152344-.164062-.28125-.285156-.386719-.1875-.160156-.429687-.253906-.6875-.253906zm0 .140625h5.722656l-2.214843 4.835937-1.296875 2.835938-2.773438-7.476563c.15625-.121094.355469-.195312.5625-.195312zm5.960938 0h5.945312c.207032 0 .398438.070312.558594.191406l-.050781.125-2.921875 7.40625zm-.121094.078125 3.53125 7.714843h-7.0625l.347656-.757812zm6.734375.214843c.074219.074219.132813.164063.175781.265626l2.976563 6.945312c.039062.09375.0625.191406.070312.289062h-6.183593zm-13.25.003907 2.78125 7.496093h-5.996094c.007813-.097656.03125-.195312.070313-.289062l2.976562-6.945312c.042969-.097657.101563-.1875.167969-.261719zm-3.328125 7.636719h6.15625l1.789062 5.371093 1.796876 5.394531c-.214844-.023437-.421876-.125-.578126-.296874l-8.929687-9.925782c-.140625-.152344-.21875-.34375-.234375-.542968zm6.304688 0h7.082031l-3.542969 10.625zm7.230468 0h6.15625c-.015625.199218-.097656.390624-.234375.542968l-8.929687 9.925782c-.160156.171874-.367188.273437-.582032.296874zm0 0" fill="#212121"/></svg>

<?xml version="1.0" encoding="UTF-8"?>
<svg xmlns="http://www.w3.org/2000/svg" xmlns:xlink="http://www.w3.org/1999/xlink" width="24pt" height="24pt" viewBox="0 0 24 24" version="1.1">
<defs>
<radialGradient id="radial0" gradientUnits="userSpaceOnUse" cx="450.90894" cy="189.57936" fx="450.90894" fy="189.57936" r="21.166656" gradientTransform="matrix(0.0000000979709,-0.0585994,-0.0791092,-0.0000000761539,26.718765,47.724063)">
<stop offset="0" style="stop-color:rgb(0%,0%,0%);stop-opacity:0.313725;"/>
<stop offset="0.222222" style="stop-color:rgb(0%,0%,0%);stop-opacity:0.27451;"/>
<stop offset="1" style="stop-color:rgb(0%,0%,0%);stop-opacity:0;"/>
</radialGradient>
<radialGradient id="radial1" gradientUnits="userSpaceOnUse" cx="450.90894" cy="189.57936" fx="450.90894" fy="189.57936" r="21.166656" gradientTransform="matrix(-0.0000000979709,0.0585994,0.0791092,0.0000000761539,-2.903993,-5.618047)">
<stop offset="0" style="stop-color:rgb(0%,0%,0%);stop-opacity:0.313725;"/>
<stop offset="0.222222" style="stop-color:rgb(0%,0%,0%);stop-opacity:0.27451;"/>
<stop offset="1" style="stop-color:rgb(0%,0%,0%);stop-opacity:0;"/>
</radialGradient>
<radialGradient id="radial2" gradientUnits="userSpaceOnUse" cx="450.90894" cy="189.57936" fx="450.90894" fy="189.57936" r="21.166656" gradientTransform="matrix(-0.0000000979709,-0.0585994,0.0791092,-0.0000000761539,-2.903993,47.724063)">
<stop offset="0" style="stop-color:rgb(0%,0%,0%);stop-opacity:0.313725;"/>
<stop offset="0.222222" style="stop-color:rgb(0%,0%,0%);stop-opacity:0.27451;"/>
<stop offset="1" style="stop-color:rgb(0%,0%,0%);stop-opacity:0;"/>
</radialGradient>
<radialGradient id="radial3" gradientUnits="userSpaceOnUse" cx="450.90894" cy="189.57936" fx="450.90894" fy="189.57936" r="21.166656" gradientTransform="matrix(0.0000000979709,0.0585994,-0.0791092,0.0000000761539,26.718764,-5.618048)">
<stop offset="0" style="stop-color:rgb(0%,0%,0%);stop-opacity:0.313725;"/>
<stop offset="0.222222" style="stop-color:rgb(0%,0%,0%);stop-opacity:0.27451;"/>
<stop offset="1" style="stop-color:rgb(0%,0%,0%);stop-opacity:0;"/>
</radialGradient>
<linearGradient id="linear0" gradientUnits="userSpaceOnUse" x1="480" y1="1695.1182" x2="480" y2="175.11813" gradientTransform="matrix(0.0124035,0,0,0.0124035,0,0)">
<stop offset="0" style="stop-color:rgb(89.803922%,45.098039%,45.098039%);stop-opacity:1;"/>
<stop offset="1" style="stop-color:rgb(93.72549%,60.392157%,60.392157%);stop-opacity:1;"/>
</linearGradient>
<linearGradient id="linear1" gradientUnits="userSpaceOnUse" x1="800" y1="1695.1182" x2="800" y2="175.11813" gradientTransform="matrix(0.0124035,0,0,0.0124035,0,0)">
<stop offset="0" style="stop-color:rgb(93.72549%,32.54902%,31.372549%);stop-opacity:1;"/>
<stop offset="1" style="stop-color:rgb(89.803922%,45.098039%,45.098039%);stop-opacity:1;"/>
</linearGradient>
<linearGradient id="linear2" gradientUnits="userSpaceOnUse" x1="960" y1="1695.1182" x2="960" y2="175.11812" gradientTransform="matrix(0.0124035,0,0,0.0124035,0,0)">
<stop offset="0" style="stop-color:rgb(95.686275%,26.27451%,21.176471%);stop-opacity:1;"/>
<stop offset="1" style="stop-color:rgb(93.72549%,32.54902%,31.372549%);stop-opacity:1;"/>
</linearGradient>
<linearGradient id="linear3" gradientUnits="userSpaceOnUse" x1="1280" y1="1695.1182" x2="1280" y2="175.11813" gradientTransform="matrix(0.0124035,0,0,0.0124035,0,0)">
<stop offset="0" style="stop-color:rgb(93.72549%,32.54902%,31.372549%);stop-opacity:1;"/>
<stop offset="1" style="stop-color:rgb(89.803922%,45.098039%,45.098039%);stop-opacity:1;"/>
</linearGradient>
<linearGradient id="linear4" gradientUnits="userSpaceOnUse" x1="1520" y1="1695.1182" x2="1520" y2="175.11813" gradientTransform="matrix(0.0124035,0,0,0.0124035,0,0)">
<stop offset="0" style="stop-color:rgb(89.803922%,45.098039%,45.098039%);stop-opacity:1;"/>
<stop offset="1" style="stop-color:rgb(93.72549%,60.392157%,60.392157%);stop-opacity:1;"/>
</linearGradient>
<linearGradient id="linear5" gradientUnits="userSpaceOnUse" x1="400" y1="1695.1182" x2="400" y2="175.11813" gradientTransform="matrix(0.0124035,0,0,0.0124035,0,0)">
<stop offset="0" style="stop-color:rgb(95.686275%,26.27451%,21.176471%);stop-opacity:1;"/>
<stop offset="1" style="stop-color:rgb(93.72549%,32.54902%,31.372549%);stop-opacity:1;"/>
</linearGradient>
<linearGradient id="linear6" gradientUnits="userSpaceOnUse" x1="960" y1="1695.1182" x2="960" y2="175.11812" gradientTransform="matrix(0.0124035,0,0,0.0124035,0,0)">
<stop offset="0" style="stop-color:rgb(93.72549%,32.54902%,31.372549%);stop-opacity:1;"/>
<stop offset="1" style="stop-color:rgb(89.803922%,45.098039%,45.098039%);stop-opacity:1;"/>
</linearGradient>
<linearGradient id="linear7" gradientUnits="userSpaceOnUse" x1="1360" y1="1695.1182" x2="1360" y2="175.11813" gradientTransform="matrix(0.0124035,0,0,0.0124035,0,0)">
<stop offset="0" style="stop-color:rgb(95.686275%,26.27451%,21.176471%);stop-opacity:1;"/>
<stop offset="1" style="stop-color:rgb(93.72549%,32.54902%,31.372549%);stop-opacity:1;"/>
</linearGradient>
</defs>
<g id="surface1">
<path style=" stroke:none;fill-rule:nonzero;fill:url(#radial0);" d="M 11.90625 21.054688 L 13.394531 21.054688 L 13.394531 20.0625 L 11.90625 20.0625 Z M 11.90625 21.054688 "/>
<path style=" stroke:none;fill-rule:nonzero;fill:url(#radial1);" d="M 11.90625 21.054688 L 10.417969 21.054688 L 10.417969 22.046875 L 11.90625 22.046875 Z M 11.90625 21.054688 "/>
<path style=" stroke:none;fill-rule:nonzero;fill:url(#radial2);" d="M 11.90625 21.054688 L 10.417969 21.054688 L 10.417969 20.0625 L 11.90625 20.0625 Z M 11.90625 21.054688 "/>
<path style=" stroke:none;fill-rule:nonzero;fill:url(#radial3);" d="M 11.90625 21.054688 L 13.394531 21.054688 L 13.394531 22.046875 L 11.90625 22.046875 Z M 11.90625 21.054688 "/>
<path style=" stroke:none;fill-rule:nonzero;fill:url(#linear0);" d="M 5.421875 2.417969 C 5.308594 2.515625 5.21875 2.632812 5.15625 2.773438 L 2.179688 9.722656 C 2.128906 9.847656 2.101562 9.980469 2.101562 10.109375 L 8.273438 10.109375 Z M 5.421875 2.417969 "/>
<path style=" stroke:none;fill-rule:nonzero;fill:url(#linear1);" d="M 11.898438 2.175781 L 6.066406 2.175781 C 5.824219 2.175781 5.597656 2.265625 5.421875 2.417969 L 8.269531 10.101562 Z M 11.898438 2.175781 "/>
<path style=" stroke:none;fill-rule:nonzero;fill:url(#linear2);" d="M 11.898438 2.175781 L 8.269531 10.101562 L 8.273438 10.109375 L 15.546875 10.109375 L 11.917969 2.175781 Z M 11.898438 2.175781 "/>
<path style=" stroke:none;fill-rule:nonzero;fill:url(#linear3);" d="M 18.613281 2.414062 C 18.4375 2.265625 18.214844 2.175781 17.972656 2.175781 L 11.917969 2.175781 L 15.546875 10.109375 L 15.578125 10.109375 Z M 18.613281 2.414062 "/>
<path style=" stroke:none;fill-rule:nonzero;fill:url(#linear4);" d="M 18.613281 2.414062 L 15.578125 10.109375 L 21.9375 10.109375 C 21.9375 9.980469 21.910156 9.847656 21.859375 9.722656 L 18.882812 2.773438 C 18.820312 2.632812 18.726562 2.511719 18.613281 2.414062 Z M 18.613281 2.414062 "/>
<path style=" stroke:none;fill-rule:nonzero;fill:url(#linear5);" d="M 8.269531 10.109375 L 1.988281 10.109375 C 1.988281 10.351562 2.078125 10.585938 2.242188 10.769531 L 11.171875 20.695312 C 11.367188 20.910156 11.636719 21.019531 11.90625 21.019531 Z M 8.269531 10.109375 "/>
<path style=" stroke:none;fill-rule:nonzero;fill:url(#linear6);" d="M 8.269531 10.109375 L 11.90625 21.019531 C 11.90625 21.019531 11.90625 21.019531 11.910156 21.019531 L 15.546875 10.109375 Z M 8.269531 10.109375 "/>
<path style=" stroke:none;fill-rule:nonzero;fill:url(#linear7);" d="M 15.546875 10.109375 L 11.910156 21.019531 C 12.175781 21.019531 12.445312 20.910156 12.640625 20.695312 L 21.570312 10.769531 C 21.738281 10.585938 21.824219 10.351562 21.824219 10.109375 Z M 15.546875 10.109375 "/>
<path style=" stroke:none;fill-rule:nonzero;fill:rgb(100%,100%,100%);fill-opacity:0.392157;" d="M 6.066406 2.175781 C 5.824219 2.175781 5.597656 2.265625 5.421875 2.417969 C 5.308594 2.515625 5.21875 2.632812 5.15625 2.773438 L 2.179688 9.722656 C 2.128906 9.847656 2.101562 9.980469 2.101562 10.109375 L 1.988281 10.109375 C 1.988281 10.191406 2 10.277344 2.019531 10.355469 L 2.101562 10.355469 C 2.101562 10.226562 2.128906 10.09375 2.179688 9.96875 L 5.15625 3.019531 C 5.21875 2.878906 5.308594 2.757812 5.421875 2.664062 C 5.597656 2.511719 5.824219 2.421875 6.066406 2.421875 L 17.972656 2.421875 C 18.214844 2.421875 18.4375 2.511719 18.613281 2.660156 C 18.726562 2.757812 18.820312 2.878906 18.882812 3.019531 L 21.859375 9.96875 C 21.878906 10.015625 21.894531 10.0625 21.90625 10.109375 L 21.9375 10.109375 C 21.9375 9.980469 21.910156 9.847656 21.859375 9.722656 L 18.882812 2.773438 C 18.820312 2.632812 18.726562 2.511719 18.613281 2.414062 C 18.4375 2.265625 18.214844 2.175781 17.972656 2.175781 Z M 6.066406 2.175781 "/>
<path style=" stroke:none;fill-rule:nonzero;fill:rgb(0%,0%,0%);fill-opacity:0.235294;" d="M 1.988281 10.109375 C 1.988281 10.351562 2.078125 10.585938 2.242188 10.769531 L 11.171875 20.695312 C 11.367188 20.910156 11.636719 21.019531 11.90625 21.019531 C 11.90625 21.019531 11.90625 21.019531 11.910156 21.019531 C 12.175781 21.019531 12.445312 20.910156 12.640625 20.695312 L 21.570312 10.769531 C 21.738281 10.585938 21.824219 10.351562 21.824219 10.109375 L 21.773438 10.109375 C 21.730469 10.234375 21.664062 10.355469 21.570312 10.457031 L 12.640625 20.378906 C 12.445312 20.597656 12.175781 20.707031 11.910156 20.707031 C 11.90625 20.707031 11.90625 20.707031 11.90625 20.707031 C 11.636719 20.707031 11.367188 20.597656 11.171875 20.378906 L 2.242188 10.457031 C 2.152344 10.355469 2.082031 10.234375 2.039062 10.109375 Z M 1.988281 10.109375 "/>
<path style=" stroke:none;fill-rule:nonzero;fill:rgb(12.941176%,12.941176%,12.941176%);fill-opacity:1;" d="M 6.066406 2.105469 C 5.808594 2.105469 5.5625 2.203125 5.375 2.363281 C 5.253906 2.46875 5.15625 2.597656 5.09375 2.746094 L 2.117188 9.695312 C 2.070312 9.804688 2.042969 9.921875 2.035156 10.039062 L 1.988281 10.039062 C 1.949219 10.039062 1.917969 10.070312 1.917969 10.109375 C 1.917969 10.367188 2.011719 10.621094 2.191406 10.816406 L 11.121094 20.742188 C 11.332031 20.972656 11.617188 21.089844 11.90625 21.089844 C 11.898438 21.089844 11.902344 21.089844 11.910156 21.089844 C 12.195312 21.089844 12.484375 20.972656 12.695312 20.742188 L 21.625 10.816406 C 21.785156 10.636719 21.878906 10.414062 21.894531 10.179688 L 21.9375 10.179688 C 21.976562 10.179688 22.007812 10.148438 22.007812 10.109375 C 22.007812 9.96875 21.980469 9.828125 21.921875 9.695312 L 18.945312 2.746094 C 18.878906 2.59375 18.78125 2.464844 18.660156 2.359375 C 18.472656 2.199219 18.230469 2.105469 17.972656 2.105469 Z M 6.066406 2.246094 L 11.789062 2.246094 L 9.574219 7.082031 L 8.277344 9.917969 L 5.503906 2.441406 C 5.660156 2.320312 5.859375 2.246094 6.066406 2.246094 Z M 12.027344 2.246094 L 17.972656 2.246094 C 18.179688 2.246094 18.371094 2.316406 18.53125 2.4375 L 18.480469 2.5625 L 15.558594 9.96875 Z M 11.90625 2.324219 L 15.4375 10.039062 L 8.375 10.039062 L 8.722656 9.28125 Z M 18.640625 2.539062 C 18.714844 2.613281 18.773438 2.703125 18.816406 2.804688 L 21.792969 9.75 C 21.832031 9.84375 21.855469 9.941406 21.863281 10.039062 L 15.679688 10.039062 Z M 5.390625 2.542969 L 8.171875 10.039062 L 2.175781 10.039062 C 2.183594 9.941406 2.207031 9.84375 2.246094 9.75 L 5.222656 2.804688 C 5.265625 2.707031 5.324219 2.617188 5.390625 2.542969 Z M 2.0625 10.179688 L 8.21875 10.179688 L 10.007812 15.550781 L 11.804688 20.945312 C 11.589844 20.921875 11.382812 20.820312 11.226562 20.648438 L 2.296875 10.722656 C 2.15625 10.570312 2.078125 10.378906 2.0625 10.179688 Z M 8.367188 10.179688 L 15.449219 10.179688 L 11.90625 20.804688 Z M 15.597656 10.179688 L 21.753906 10.179688 C 21.738281 10.378906 21.65625 10.570312 21.519531 10.722656 L 12.589844 20.648438 C 12.429688 20.820312 12.222656 20.921875 12.007812 20.945312 Z M 15.597656 10.179688 "/>
</g>
</svg>
